Newaita-dark/apps/24/com.github.bcedu.museic.svg

<svg height="24pt" viewBox="0 0 24 24" width="24pt" xmlns="http://www.w3.org/2000/svg" xmlns:xlink="http://www.w3.org/1999/xlink"><linearGradient id="a"><stop offset="0" stop-opacity=".313725"/><stop offset=".222222" stop-opacity=".27451"/><stop offset="1" stop-opacity="0"/></linearGradient><radialGradient id="b" cx="450.90894" cy="189.57936" gradientTransform="matrix(.00000012 -.0820391 -.094931 -.00000011 24.918071 58.364942)" gradientUnits="userSpaceOnUse" r="21.166656" xlink:href="#a"/><radialGradient id="c" cx="450.90894" cy="189.57936" gradientTransform="matrix(-.00000012 .0820391 .094931 .00000011 -11.522261 -16.314054)" gradientUnits="userSpaceOnUse" r="21.166656" xlink:href="#a"/><radialGradient id="d" cx="450.90894" cy="189.57936" gradientTransform="matrix(-.00000012 -.0820391 .094931 -.00000011 -11.522261 58.364942)" gradientUnits="userSpaceOnUse" r="21.166656" xlink:href="#a"/><radialGradient id="e" cx="450.90894" cy="189.57936" gradientTransform="matrix(.00000012 .0820391 -.094931 .00000011 24.91807 -16.314055)" gradientUnits="userSpaceOnUse" r="21.166656" xlink:href="#a"/><linearGradient id="f" gradientTransform="matrix(.00257659 0 0 .0656313 6.040043 5.700536)" gradientUnits="userSpaceOnUse" x1="255.32306" x2="255.32304" y1="233.5" y2="254.66666"><stop offset="0" stop-opacity=".27451"/><stop offset="1" stop-opacity="0"/></linearGradient><linearGradient id="g" gradientUnits="userSpaceOnUse" x1="11.90742825144" x2="11.90742825144" y1="21.02550698576" y2="2.17211638587"><stop offset="0" stop-color="#424242"/><stop offset="1" stop-color="#616161"/></linearGradient><path d="m7.144531 21.027344h1.785157v-1.390625h-1.785157zm0 0" fill="url(#b)"/><path d="m6.25 21.027344h-1.785156v1.386718h1.785156zm0 0" fill="url(#c)"/><path d="m6.25 21.027344h-1.785156v-1.390625h1.785156zm0 0" fill="url(#d)"/><path d="m7.144531 21.027344h1.785157v1.386718h-1.785157zm0 0" fill="url(#e)"/><path d="m6.25 20.679688h.894531v1.734374h-.894531zm0 0" fill="url(#f)"/><path d="m8.929688 2.171875c-.648438 0-1.171876.609375-1.171876 1.367187v11.710938c-.367187-.105469-.761718-.164062-1.175781-.164062-1.949219 0-3.519531 1.308593-3.519531 2.933593s1.570312 2.9375 3.519531 2.9375c1.953125 0 3.523438-1.3125 3.523438-2.9375v-12.914062c0-.324219.261719-.585938.585937-.585938h5.871094c.324219 0 .585938.261719.585938.585938v6.625c-.367188-.109375-.761719-.167969-1.175782-.167969-1.949218 0-3.519531 1.308594-3.519531 2.9375 0 1.625 1.570313 2.933594 3.519531 2.933594 1.953125 0 3.523438-1.308594 3.523438-2.933594v-10.960938c0-.757812-.523438-1.367187-1.175782-1.367187zm0 0" fill="url(#g)"/><path d="m8.929688 2.171875c-.648438 0-1.171876.609375-1.171876 1.367187v.25c0-.757812.523438-1.367187 1.171876-1.367187h9.390624c.652344 0 1.175782.609375 1.175782 1.367187v-.25c0-.757812-.523438-1.367187-1.175782-1.367187zm7.042968 9.390625c-1.949218 0-3.519531 1.308594-3.519531 2.9375 0 .039062 0 .082031.003906.121094.078125-1.566406 1.617188-2.808594 3.515625-2.808594.414063 0 .808594.058594 1.175782.164062v-.246093c-.367188-.109375-.761719-.167969-1.175782-.167969zm-9.390625 3.523438c-1.949219 0-3.519531 1.308593-3.519531 2.933593v.125c.078125-1.570312 1.621094-2.8125 3.519531-2.8125.414063 0 .808594.058594 1.175781.167969v-.25c-.367187-.105469-.761718-.164062-1.175781-.164062zm0 0" fill="#fff" fill-opacity=".313725"/><path d="m10.691406 4.140625c-.324218 0-.585937.261719-.585937.585937v.378907c0-.324219.261719-.585938.585937-.585938h5.871094c.324219 0 .585938.261719.585938.585938v-.378907c0-.324218-.261719-.585937-.585938-.585937zm8.804688 9.980469c0 1.625-1.570313 2.933594-3.523438 2.933594-1.875 0-3.394531-1.207032-3.511718-2.746094-.003907.0625-.007813.125-.007813.191406 0 1.625 1.570313 2.933594 3.519531 2.933594 1.953125 0 3.523438-1.308594 3.523438-2.933594zm-9.390625 3.519531c0 1.625-1.570313 2.9375-3.523438 2.9375-1.875 0-3.398437-1.210937-3.515625-2.746094-.003906.0625-.003906.125-.003906.1875 0 1.625 1.570312 2.9375 3.519531 2.9375 1.953125 0 3.523438-1.3125 3.523438-2.9375zm0 0" fill-opacity=".235294"/><path d="m190.48181-168.671091c-13.832013 0-24.997613 12.998759-24.997613 29.163882v249.809478c-7.832585-2.249786-16.248448-3.499666-25.080938-3.499666-41.579363 0-75.076164 27.914001-75.076164 62.577357 0 34.663357 33.496801 62.660683 75.076164 62.660683 41.662688 0 75.159489-27.997326 75.159489-62.660683v-275.473693c0-6.916007 5.5828-12.498807 12.498807-12.498807h125.23804c6.916006 0 12.498806 5.5828 12.498806 12.498807v141.319838c-7.832585-2.333111-16.248448-3.582992-25.080938-3.582992-41.579363 0-75.076164 27.914001-75.076164 62.660683 0 34.663357 33.496801 62.577358 75.076164 62.577358 41.662688 0 75.159489-27.914001 75.159489-62.577358v-233.811005c0-16.165123-11.1656-29.163882-25.080938-29.163882zm0 0" fill="none" stroke="#212121" stroke-linecap="round" stroke-width="3" transform="matrix(.0468795 0 0 .0468795 0 10.079087)"/></svg>

<?xml version="1.0" encoding="UTF-8"?>
<svg xmlns="http://www.w3.org/2000/svg" xmlns:xlink="http://www.w3.org/1999/xlink" width="24pt" height="24pt" viewBox="0 0 24 24" version="1.1">
<defs>
<radialGradient id="radial0" gradientUnits="userSpaceOnUse" cx="450.90894" cy="189.57936" fx="450.90894" fy="189.57936" r="21.166656" gradientTransform="matrix(0.000000117565,-0.0820391,-0.094931,-0.000000106616,24.918071,58.364942)">
<stop offset="0" style="stop-color:rgb(0%,0%,0%);stop-opacity:0.313725;"/>
<stop offset="0.222222" style="stop-color:rgb(0%,0%,0%);stop-opacity:0.27451;"/>
<stop offset="1" style="stop-color:rgb(0%,0%,0%);stop-opacity:0;"/>
</radialGradient>
<radialGradient id="radial1" gradientUnits="userSpaceOnUse" cx="450.90894" cy="189.57936" fx="450.90894" fy="189.57936" r="21.166656" gradientTransform="matrix(-0.000000117565,0.0820391,0.094931,0.000000106616,-11.522261,-16.314054)">
<stop offset="0" style="stop-color:rgb(0%,0%,0%);stop-opacity:0.313725;"/>
<stop offset="0.222222" style="stop-color:rgb(0%,0%,0%);stop-opacity:0.27451;"/>
<stop offset="1" style="stop-color:rgb(0%,0%,0%);stop-opacity:0;"/>
</radialGradient>
<radialGradient id="radial2" gradientUnits="userSpaceOnUse" cx="450.90894" cy="189.57936" fx="450.90894" fy="189.57936" r="21.166656" gradientTransform="matrix(-0.000000117565,-0.0820391,0.094931,-0.000000106616,-11.522261,58.364942)">
<stop offset="0" style="stop-color:rgb(0%,0%,0%);stop-opacity:0.313725;"/>
<stop offset="0.222222" style="stop-color:rgb(0%,0%,0%);stop-opacity:0.27451;"/>
<stop offset="1" style="stop-color:rgb(0%,0%,0%);stop-opacity:0;"/>
</radialGradient>
<radialGradient id="radial3" gradientUnits="userSpaceOnUse" cx="450.90894" cy="189.57936" fx="450.90894" fy="189.57936" r="21.166656" gradientTransform="matrix(0.000000117565,0.0820391,-0.094931,0.000000106616,24.91807,-16.314055)">
<stop offset="0" style="stop-color:rgb(0%,0%,0%);stop-opacity:0.313725;"/>
<stop offset="0.222222" style="stop-color:rgb(0%,0%,0%);stop-opacity:0.27451;"/>
<stop offset="1" style="stop-color:rgb(0%,0%,0%);stop-opacity:0;"/>
</radialGradient>
<linearGradient id="linear0" gradientUnits="userSpaceOnUse" x1="255.32306" y1="233.5" x2="255.32304" y2="254.66666" gradientTransform="matrix(0.00257659,0,0,0.0656313,6.040043,5.700536)">
<stop offset="0" style="stop-color:rgb(0%,0%,0%);stop-opacity:0.27451;"/>
<stop offset="1" style="stop-color:rgb(0%,0%,0%);stop-opacity:0;"/>
</linearGradient>
<linearGradient id="linear1" gradientUnits="userSpaceOnUse" x1="981.43005" y1="1457.5077" x2="981.43005" y2="815.11719" gradientTransform="matrix(0.0293488,0,0,0.0293488,-16.896366,-21.750595)">
<stop offset="0" style="stop-color:rgb(25.882353%,25.882353%,25.882353%);stop-opacity:1;"/>
<stop offset="1" style="stop-color:rgb(38.039216%,38.039216%,38.039216%);stop-opacity:1;"/>
</linearGradient>
</defs>
<g id="surface1">
<path style=" stroke:none;fill-rule:nonzero;fill:url(#radial0);" d="M 7.144531 21.027344 L 8.929688 21.027344 L 8.929688 19.636719 L 7.144531 19.636719 Z M 7.144531 21.027344 "/>
<path style=" stroke:none;fill-rule:nonzero;fill:url(#radial1);" d="M 6.25 21.027344 L 4.464844 21.027344 L 4.464844 22.414062 L 6.25 22.414062 Z M 6.25 21.027344 "/>
<path style=" stroke:none;fill-rule:nonzero;fill:url(#radial2);" d="M 6.25 21.027344 L 4.464844 21.027344 L 4.464844 19.636719 L 6.25 19.636719 Z M 6.25 21.027344 "/>
<path style=" stroke:none;fill-rule:nonzero;fill:url(#radial3);" d="M 7.144531 21.027344 L 8.929688 21.027344 L 8.929688 22.414062 L 7.144531 22.414062 Z M 7.144531 21.027344 "/>
<path style=" stroke:none;fill-rule:nonzero;fill:url(#linear0);" d="M 6.25 20.679688 L 7.144531 20.679688 L 7.144531 22.414062 L 6.25 22.414062 Z M 6.25 20.679688 "/>
<path style=" stroke:none;fill-rule:nonzero;fill:url(#linear1);" d="M 8.929688 2.171875 C 8.28125 2.171875 7.757812 2.78125 7.757812 3.539062 L 7.757812 15.25 C 7.390625 15.144531 6.996094 15.085938 6.582031 15.085938 C 4.632812 15.085938 3.0625 16.394531 3.0625 18.019531 C 3.0625 19.644531 4.632812 20.957031 6.582031 20.957031 C 8.535156 20.957031 10.105469 19.644531 10.105469 18.019531 L 10.105469 5.105469 C 10.105469 4.78125 10.367188 4.519531 10.691406 4.519531 L 16.5625 4.519531 C 16.886719 4.519531 17.148438 4.78125 17.148438 5.105469 L 17.148438 11.730469 C 16.78125 11.621094 16.386719 11.5625 15.972656 11.5625 C 14.023438 11.5625 12.453125 12.871094 12.453125 14.5 C 12.453125 16.125 14.023438 17.433594 15.972656 17.433594 C 17.925781 17.433594 19.496094 16.125 19.496094 14.5 L 19.496094 3.539062 C 19.496094 2.78125 18.972656 2.171875 18.320312 2.171875 Z M 8.929688 2.171875 "/>
<path style=" stroke:none;fill-rule:nonzero;fill:rgb(100%,100%,100%);fill-opacity:0.313725;" d="M 8.929688 2.171875 C 8.28125 2.171875 7.757812 2.78125 7.757812 3.539062 L 7.757812 3.789062 C 7.757812 3.03125 8.28125 2.421875 8.929688 2.421875 L 18.320312 2.421875 C 18.972656 2.421875 19.496094 3.03125 19.496094 3.789062 L 19.496094 3.539062 C 19.496094 2.78125 18.972656 2.171875 18.320312 2.171875 Z M 15.972656 11.5625 C 14.023438 11.5625 12.453125 12.871094 12.453125 14.5 C 12.453125 14.539062 12.453125 14.582031 12.457031 14.621094 C 12.535156 13.054688 14.074219 11.8125 15.972656 11.8125 C 16.386719 11.8125 16.78125 11.871094 17.148438 11.976562 L 17.148438 11.730469 C 16.78125 11.621094 16.386719 11.5625 15.972656 11.5625 Z M 6.582031 15.085938 C 4.632812 15.085938 3.0625 16.394531 3.0625 18.019531 C 3.0625 18.0625 3.0625 18.101562 3.0625 18.144531 C 3.140625 16.574219 4.683594 15.332031 6.582031 15.332031 C 6.996094 15.332031 7.390625 15.390625 7.757812 15.5 L 7.757812 15.25 C 7.390625 15.144531 6.996094 15.085938 6.582031 15.085938 Z M 6.582031 15.085938 "/>
<path style=" stroke:none;fill-rule:nonzero;fill:rgb(0%,0%,0%);fill-opacity:0.235294;" d="M 10.691406 4.140625 C 10.367188 4.140625 10.105469 4.402344 10.105469 4.726562 L 10.105469 5.105469 C 10.105469 4.78125 10.367188 4.519531 10.691406 4.519531 L 16.5625 4.519531 C 16.886719 4.519531 17.148438 4.78125 17.148438 5.105469 L 17.148438 4.726562 C 17.148438 4.402344 16.886719 4.140625 16.5625 4.140625 Z M 19.496094 14.121094 C 19.496094 15.746094 17.925781 17.054688 15.972656 17.054688 C 14.097656 17.054688 12.578125 15.847656 12.460938 14.308594 C 12.457031 14.371094 12.453125 14.433594 12.453125 14.5 C 12.453125 16.125 14.023438 17.433594 15.972656 17.433594 C 17.925781 17.433594 19.496094 16.125 19.496094 14.5 Z M 10.105469 17.640625 C 10.105469 19.265625 8.535156 20.578125 6.582031 20.578125 C 4.707031 20.578125 3.183594 19.367188 3.066406 17.832031 C 3.0625 17.894531 3.0625 17.957031 3.0625 18.019531 C 3.0625 19.644531 4.632812 20.957031 6.582031 20.957031 C 8.535156 20.957031 10.105469 19.644531 10.105469 18.019531 Z M 10.105469 17.640625 "/>
<path style="fill:none;stroke-width:3;stroke-linecap:round;stroke-linejoin:miter;stroke:rgb(12.941176%,12.941176%,12.941176%);stroke-opacity:1;stroke-miterlimit:4;" d="M 190.48181 -168.671091 C 176.649797 -168.671091 165.484197 -155.672332 165.484197 -139.507209 L 165.484197 110.302269 C 157.651612 108.052483 149.235749 106.802603 140.403259 106.802603 C 98.823896 106.802603 65.327095 134.716604 65.327095 169.37996 C 65.327095 204.043317 98.823896 232.040643 140.403259 232.040643 C 182.065947 232.040643 215.562748 204.043317 215.562748 169.37996 L 215.562748 -106.093733 C 215.562748 -113.00974 221.145548 -118.59254 228.061555 -118.59254 L 353.299595 -118.59254 C 360.215601 -118.59254 365.798401 -113.00974 365.798401 -106.093733 L 365.798401 35.226105 C 357.965816 32.892994 349.549953 31.643113 340.717463 31.643113 C 299.1381 31.643113 265.641299 59.557114 265.641299 94.303796 C 265.641299 128.967153 299.1381 156.881154 340.717463 156.881154 C 382.380151 156.881154 415.876952 128.967153 415.876952 94.303796 L 415.876952 -139.507209 C 415.876952 -155.672332 404.711352 -168.671091 390.796014 -168.671091 Z M 190.48181 -168.671091 " transform="matrix(0.0468795,0,0,0.0468795,0,10.079087)"/>
</g>
</svg>
